src/images/features/stateart.svg

<svg xmlns="http://www.w3.org/2000/svg" xmlns:xlink="http://www.w3.org/1999/xlink" width="100" height="100" viewBox="0 0 100 100"><g><g transform="translate(50 50) rotate(0) translate(-50 -50)" style="fill:#000000"><svg fill="#000000" xmlns="http://www.w3.org/2000/svg" xmlns:xlink="http://www.w3.org/1999/xlink" viewBox="0 0 100 100" version="1.1" x="0px" y="0px"><title>Artboard 1 Copy 73</title><desc>Created with Sketch.</desc><g stroke="none" stroke-width="1" fill="none" fill-rule="evenodd"><g fill="#000000"><path d="M58.4824,69.0664 C59.2254,67.4774 60.0874,65.5264 60.5904,64.0304 C60.8464,63.2674 61.1254,62.2044 61.3974,61.0474 C61.7494,59.7414 62.0694,58.3674 62.3554,56.9314 C65.2374,59.7854 69.6264,64.8914 70.7374,70.4394 C66.0044,69.4944 61.4094,69.1714 58.4824,69.0664 M31.2624,70.4394 C32.3734,64.8914 36.7624,59.7854 39.6444,56.9314 C39.9314,58.3694 40.2514,59.7444 40.6034,61.0524 C40.8764,62.2074 41.1534,63.2684 41.4094,64.0304 C41.9124,65.5264 42.7744,67.4774 43.5184,69.0664 C40.5914,69.1714 35.9954,69.4944 31.2624,70.4394 M40.8394,52.0004 L43.0004,52.0004 C43.5564,52.0004 44.0004,51.5524 44.0004,51.0004 C44.0004,50.4444 43.5524,50.0004 43.0004,50.0004 L40.5894,50.0004 C40.5154,49.3394 40.4474,48.6734 40.3864,48.0004 L46.0034,48.0004 C46.5464,48.0004 47.0004,47.5524 47.0004,47.0004 C47.0004,46.4434 46.5534,46.0004 46.0034,46.0004 L40.2264,46.0004 C40.1814,45.3384 40.1454,44.6704 40.1134,44.0004 L43.0004,44.0004 C43.5564,44.0004 44.0004,43.5524 44.0004,43.0004 C44.0004,42.4434 43.5524,42.0004 43.0004,42.0004 L40.0404,42.0004 C40.0224,41.3374 40.0124,40.6704 40.0074,40.0004 L41.0014,40.0004 C41.5574,40.0004 42.0004,39.5524 42.0004,39.0004 C42.0004,38.4434 41.5524,38.0004 41.0014,38.0004 L40.0404,38.0004 C40.0604,37.3294 40.0854,36.6614 40.1334,36.0004 L41.0014,36.0004 C41.5574,36.0004 42.0004,35.5524 42.0004,35.0004 C42.0004,34.4434 41.5524,34.0004 41.0014,34.0004 L40.3154,34.0004 C40.3944,33.3254 40.4954,32.6624 40.5994,32.0004 L41.9904,32.0004 C42.5564,32.0004 43.0004,31.5524 43.0004,31.0004 C43.0004,30.4434 42.5474,30.0004 41.9904,30.0004 L40.9554,30.0004 C41.0884,29.3264 41.2284,28.6574 41.3844,28.0004 L44.0004,28.0004 C44.5564,28.0004 45.0004,27.5524 45.0004,27.0004 C45.0004,26.4434 44.5524,26.0004 44.0004,26.0004 L41.8884,26.0004 C42.0764,25.3204 42.2784,24.6574 42.4854,24.0004 L48.0034,24.0004 C48.5464,24.0004 49.0004,23.5524 49.0004,23.0004 C49.0004,22.4434 48.5534,22.0004 48.0034,22.0004 L43.1554,22.0004 C43.3994,21.3114 43.6494,20.6404 43.9064,19.9814 C43.9394,19.9844 43.9664,20.0004 44.0004,20.0004 L47.0004,20.0004 C47.5564,20.0004 48.0004,19.5524 48.0004,19.0004 C48.0004,18.4434 47.5524,18.0004 47.0004,18.0004 L44.7164,18.0004 C45.0114,17.3124 45.3084,16.6464 45.6094,16.0004 L51.0034,16.0004 C51.5464,16.0004 52.0004,15.5524 52.0004,15.0004 C52.0004,14.4434 51.5534,14.0004 51.0034,14.0004 L46.5794,14.0004 C46.9314,13.3024 47.2804,12.6334 47.6264,12.0004 L50.0004,12.0004 C50.5564,12.0004 51.0004,11.5524 51.0004,11.0004 C51.0004,10.4434 50.5524,10.0004 50.0004,10.0004 L48.7524,10.0004 C49.5994,8.5584 50.3754,7.3524 51.0024,6.4244 C54.3694,11.3954 62.0004,24.3144 62.0004,39.2924 C62.0004,44.0954 61.6514,48.7454 61.0134,53.0104 C61.0094,53.0074 61.0004,53.0004 61.0004,53.0004 C61.0004,53.0004 60.2014,57.4624 59.3964,60.8204 C58.5194,64.0214 57.4464,66.8104 56.2014,69.0004 L45.7994,69.0004 C45.6184,68.6814 45.4434,68.3424 45.2704,68.0004 L48.0004,68.0004 C48.5564,68.0004 49.0004,67.5524 49.0004,67.0004 C49.0004,66.4444 48.5524,66.0004 48.0004,66.0004 L45.0004,66.0004 C44.7844,66.0004 44.5954,66.0824 44.4334,66.1974 C44.1384,65.5024 43.8584,64.7654 43.5894,64.0004 L49.0034,64.0004 C49.5464,64.0004 50.0004,63.5524 50.0004,63.0004 C50.0004,62.4444 49.5534,62.0004 49.0034,62.0004 L42.9974,62.0004 C42.9774,62.0004 42.9604,62.0094 42.9404,62.0114 C42.8244,61.6224 42.7124,61.2204 42.6024,60.8174 C42.5384,60.5504 42.4744,60.2784 42.4114,60.0004 L45.0004,60.0004 C45.5564,60.0004 46.0004,59.5524 46.0004,59.0004 C46.0004,58.4444 45.5524,58.0004 45.0004,58.0004 L42.0004,58.0004 C41.9914,58.0004 41.9834,58.0044 41.9754,58.0044 C41.8284,57.3054 41.6914,56.6284 41.5684,56.0004 L47.0034,56.0004 C47.5464,56.0004 48.0004,55.5524 48.0004,55.0004 C48.0004,54.4444 47.5534,54.0004 47.0034,54.0004 L41.1844,54.0004 C41.0694,53.3874 41.0004,53.0004 41.0004,53.0004 C41.0004,53.0004 40.9894,53.0074 40.9854,53.0104 C40.9364,52.6754 40.8864,52.3394 40.8394,52.0004 M62.7884,54.5684 C63.5614,49.9224 64.0004,44.7534 64.0004,39.2924 C64.0004,19.2484 51.0004,3.0004 51.0004,3.0004 C51.0004,3.0004 48.7484,5.8194 46.1204,10.5474 C46.1054,10.5764 46.0864,10.6014 46.0734,10.6324 C42.3944,17.2724 38.0004,27.6364 38.0004,39.2924 C38.0004,44.7534 38.4384,49.9224 39.2114,54.5684 C35.8684,57.6854 29.0004,65.0544 29.0004,73.0004 C36.2394,71.1594 43.8724,71.0164 46.0684,71.0164 C46.4714,71.0164 46.6914,71.0214 46.6914,71.0214 L46.6804,71.0004 L55.3194,71.0004 L55.3084,71.0214 C55.3084,71.0214 55.5284,71.0164 55.9314,71.0164 C58.1284,71.0164 65.7604,71.1594 73.0004,73.0004 C73.0004,65.0544 66.1304,57.6844 62.7884,54.5684"></path><path d="M51,90.0381 C49.726,88.4411 48,85.6941 48,82.5231 C48,79.3911 49.368,76.4271 50.143,75.0001 L52.528,75.0001 C53.147,77.1001 54,80.4521 54,82.5231 C54,85.6941 52.273,88.4421 51,90.0381 L51,90.0381 Z M49,73.0001 C49,73.0001 46,77.4771 46,82.5231 C46,88.5221 51,93.0001 51,93.0001 C51,93.0001 56,88.5221 56,82.5231 C56,78.9991 54,73.0001 54,73.0001 L49,73.0001 Z"></path><path d="M45,36 C45,32.691 47.691,30 51,30 C54.309,30 57,32.691 57,36 C57,39.309 54.309,42 51,42 C47.691,42 45,39.309 45,36 M59,36 C59,31.582 55.418,28 51,28 C46.582,28 43,31.582 43,36 C43,40.418 46.582,44 51,44 C55.418,44 59,40.418 59,36"></path><path d="M48,36 C48,34.346 49.346,33 51,33 C52.654,33 54,34.346 54,36 C54,37.654 52.654,39 51,39 C49.346,39 48,37.654 48,36 M56,36 C56,33.239 53.762,31 51,31 C48.239,31 46,33.239 46,36 C46,38.761 48.239,41 51,41 C53.762,41 56,38.761 56,36"></path><path d="M93,34 C91.897,34 91,33.103 91,32 C91,30.897 91.897,30 93,30 C94.103,30 95,30.897 95,32 C95,33.103 94.103,34 93,34 M93,28 C90.791,28 89,29.791 89,32 C89,34.209 90.791,36 93,36 C95.209,36 97,34.209 97,32 C97,29.791 95.209,28 93,28"></path><path d="M8.5,94 C6.57,94 5,92.43 5,90.5 C5,88.57 6.57,87 8.5,87 C10.43,87 12,88.57 12,90.5 C12,92.43 10.43,94 8.5,94 M8.5,85 C5.462,85 3,87.463 3,90.5 C3,93.537 5.462,96 8.5,96 C11.538,96 14,93.537 14,90.5 C14,87.463 11.538,85 8.5,85"></path><path d="M23,19 C22.449,19 22,18.551 22,18 C22,17.449 22.449,17 23,17 C23.551,17 24,17.449 24,18 C24,18.551 23.551,19 23,19 M23,15 C21.343,15 20,16.343 20,18 C20,19.657 21.343,21 23,21 C24.657,21 26,19.657 26,18 C26,16.343 24.657,15 23,15"></path><path d="M30,74 C29.444,74 29,74.447 29,75 L29,90 C29,90.545 29.448,91 30,91 C30.556,91 31,90.553 31,90 L31,75 C31,74.455 30.552,74 30,74"></path><path d="M30,95 C29.444,95 29,95.447 29,95.999 L29,97.001 C29,97.558 29.448,98 30,98 C30.556,98 31,97.553 31,97.001 L31,95.999 C31,95.442 30.552,95 30,95"></path><path d="M72,74 C71.444,74 71,74.447 71,74.998 L71,86.002 C71,86.553 71.447,87 72,87 C72.556,87 73,86.553 73,86.002 L73,74.998 C73,74.447 72.553,74 72,74"></path><path d="M64,83 C63.444,83 63,83.447 63,83.999 L63,85.001 C63,85.558 63.447,86 64,86 C64.556,86 65,85.553 65,85.001 L65,83.999 C65,83.442 64.553,83 64,83"></path><path d="M64,74 C63.444,74 63,74.443 63,74.991 L63,79.009 C63,79.549 63.447,80 64,80 C64.556,80 65,79.557 65,79.009 L65,74.991 C65,74.451 64.553,74 64,74"></path><path d="M64,89 C63.444,89 63,89.447 63,90 L63,93 C63,93.557 63.447,94 64,94 C64.556,94 65,93.553 65,93 L65,90 C65,89.443 64.553,89 64,89"></path><path d="M39,77 C38.444,77 38,77.449 38,78.003 L38,87.997 C38,88.544 38.448,89 39,89 C39.556,89 40,88.551 40,87.997 L40,78.003 C40,77.456 39.552,77 39,77"></path><path d="M72,89 C71.444,89 71,89.452 71,90.01 L71,91.99 C71,92.557 71.447,93 72,93 C72.556,93 73,92.548 73,91.99 L73,90.01 C73,89.443 72.553,89 72,89"></path><path d="M69.5859,11 L68.1699,12.417 C67.7849,12.801 67.7809,13.438 68.1719,13.829 C68.5649,14.222 69.1939,14.22 69.5839,13.831 L70.9999,12.414 L72.4159,13.831 C72.8009,14.215 73.4379,14.219 73.8279,13.829 C74.2219,13.435 74.2199,12.806 73.8299,12.417 L72.4139,11 L73.8299,9.583 C74.2149,9.199 74.2189,8.562 73.8279,8.171 C73.4359,7.778 72.8059,7.78 72.4159,8.169 L70.9999,9.586 L69.5839,8.169 C69.1989,7.785 68.5629,7.781 68.1719,8.171 C67.7779,8.565 67.7799,9.194 68.1699,9.583 L69.5859,11 Z"></path><path d="M89,54 C89.556,54 90,53.553 90,53 C90,52.444 89.553,52 89,52 C88.444,52 88,52.447 88,53 C88,53.556 88.447,54 89,54"></path><path d="M30,42 C30,41.444 29.552,41 29,41 C28.444,41 28,41.448 28,42 C28,42.556 28.448,43 29,43 C29.556,43 30,42.552 30,42"></path><path d="M14,28 C14.556,28 15,27.552 15,27 C15,26.444 14.552,26 14,26 C13.444,26 13,26.448 13,27 C13,27.556 13.448,28 14,28"></path><path d="M91.4141,77 L93.5391,74.875 C93.9211,74.494 93.9261,73.855 93.5351,73.465 C93.1431,73.071 92.5141,73.072 92.1251,73.461 L90.0001,75.586 L87.8751,73.461 C87.4941,73.079 86.8551,73.074 86.4651,73.465 C86.0711,73.857 86.0721,74.486 86.4611,74.875 L88.5861,77 L86.4611,79.125 C86.0791,79.506 86.0741,80.145 86.4651,80.535 C86.8571,80.929 87.4861,80.928 87.8751,80.539 L90.0001,78.414 L92.1251,80.539 C92.5061,80.921 93.1441,80.926 93.5351,80.535 C93.9291,80.143 93.9281,79.514 93.5391,79.125 L91.4141,77 Z"></path><path d="M91,91 C90.444,91 90,91.447 90,92 C90,92.556 90.447,93 91,93 C91.556,93 92,92.553 92,92 C92,91.444 91.553,91 91,91"></path><path d="M18.0044,55 L15.0004,55 L15.0004,51.995 C15.0004,51.456 14.5524,51 14.0004,51 C13.4434,51 13.0004,51.445 13.0004,51.995 L13.0004,55 L9.9954,55 C9.4554,55 9.0004,55.447 9.0004,56 C9.0004,56.556 9.4454,57 9.9954,57 L13.0004,57 L13.0004,60.005 C13.0004,60.544 13.4474,61 14.0004,61 C14.5564,61 15.0004,60.555 15.0004,60.005 L15.0004,57 L18.0044,57 C18.5444,57 19.0004,56.553 19.0004,56 C19.0004,55.444 18.5544,55 18.0044,55"></path><path d="M19,5 C18.444,5 18,5.448 18,6 C18,6.556 18.448,7 19,7 C19.556,7 20,6.552 20,6 C20,5.444 19.552,5 19,5"></path><path d="M15,82 C14.444,82 14,82.447 14,83 C14,83.556 14.448,84 15,84 C15.556,84 16,83.553 16,83 C16,82.444 15.552,82 15,82"></path><path d="M74,28 C73.444,28 73,28.448 73,29 C73,29.556 73.447,30 74,30 C74.556,30 75,29.552 75,29 C75,28.444 74.553,28 74,28"></path><path d="M93,8 C93.556,8 94,7.552 94,7 C94,6.444 93.553,6 93,6 C92.444,6 92,6.448 92,7 C92,7.556 92.447,8 93,8"></path></g></g></svg></g></g></svg>

<?xml version="1.0" encoding="UTF-8"?>
<svg fill="#000000" version="1.1" viewBox="0 0 100 100" xmlns="http://www.w3.org/2000/svg" xmlns:xlink="http://www.w3.org/1999/xlink">
<g fill="none" fill-rule="evenodd">
<g fill="#000">
<path d="m58.482 69.066c0.743-1.589 1.605-3.54 2.108-5.036 0.256-0.763 0.535-1.826 0.807-2.983 0.352-1.306 0.672-2.68 0.958-4.116 2.882 2.854 7.271 7.96 8.382 13.508-4.733-0.945-9.328-1.268-12.255-1.373m-27.22 1.373c1.111-5.548 5.5-10.654 8.382-13.508 0.287 1.438 0.607 2.813 0.959 4.121 0.273 1.155 0.55 2.216 0.806 2.978 0.503 1.496 1.365 3.447 2.109 5.036-2.927 0.105-7.523 0.428-12.256 1.373m9.577-18.439h2.161c0.556 0 1-0.448 1-1 0-0.556-0.448-1-1-1h-2.411c-0.074-0.661-0.142-1.327-0.203-2h5.617c0.543 0 0.997-0.448 0.997-1 0-0.557-0.447-1-0.997-1h-5.777c-0.045-0.662-0.081-1.33-0.113-2h2.887c0.556 0 1-0.448 1-1 0-0.557-0.448-1-1-1h-2.96c-0.018-0.663-0.028-1.33-0.033-2h0.994c0.556 0 0.999-0.448 0.999-1 0-0.557-0.448-1-0.999-1h-0.961c0.02-0.671 0.045-1.339 0.093-2h0.868c0.556 0 0.999-0.448 0.999-1 0-0.557-0.448-1-0.999-1h-0.686c0.079-0.675 0.18-1.338 0.284-2h1.391c0.566 0 1.01-0.448 1.01-1 0-0.557-0.453-1-1.01-1h-1.035c0.133-0.674 0.273-1.343 0.429-2h2.616c0.556 0 1-0.448 1-1 0-0.557-0.448-1-1-1h-2.112c0.188-0.68 0.39-1.343 0.597-2h5.518c0.543 0 0.997-0.448 0.997-1 0-0.557-0.447-1-0.997-1h-4.848c0.244-0.689 0.494-1.36 0.751-2.019 0.033 3e-3 0.06 0.019 0.094 0.019h3c0.556 0 1-0.448 1-1 0-0.557-0.448-1-1-1h-2.284c0.295-0.688 0.592-1.354 0.893-2h5.394c0.543 0 0.997-0.448 0.997-1 0-0.557-0.447-1-0.997-1h-4.424c0.352-0.698 0.701-1.367 1.047-2h2.374c0.556 0 1-0.448 1-1 0-0.557-0.448-1-1-1h-1.248c0.847-1.442 1.623-2.648 2.25-3.576 3.367 4.971 10.998 17.89 10.998 32.868 0 4.803-0.349 9.453-0.987 13.718-4e-3 -3e-3 -0.013-0.01-0.013-0.01s-0.799 4.462-1.604 7.82c-0.877 3.201-1.95 5.99-3.195 8.18h-10.402c-0.181-0.319-0.356-0.658-0.529-1h2.73c0.556 0 1-0.448 1-1 0-0.556-0.448-1-1-1h-3c-0.216 0-0.405 0.082-0.567 0.197-0.295-0.695-0.575-1.432-0.844-2.197h5.414c0.543 0 0.997-0.448 0.997-1 0-0.556-0.447-1-0.997-1h-6.006c-0.02 0-0.037 9e-3 -0.057 0.011-0.116-0.389-0.228-0.791-0.338-1.194-0.064-0.267-0.128-0.539-0.191-0.817h2.589c0.556 0 1-0.448 1-1 0-0.556-0.448-1-1-1h-3c-9e-3 0-0.017 4e-3 -0.025 4e-3 -0.147-0.699-0.284-1.376-0.407-2.004h5.435c0.543 0 0.997-0.448 0.997-1 0-0.556-0.447-1-0.997-1h-5.819c-0.115-0.613-0.184-1-0.184-1s-0.011 7e-3 -0.015 0.01c-0.049-0.335-0.099-0.671-0.146-1.01m21.949 2.568c0.773-4.646 1.212-9.815 1.212-15.276 0-20.044-13-36.292-13-36.292s-2.252 2.819-4.88 7.547c-0.015 0.029-0.034 0.054-0.047 0.085-3.679 6.64-8.073 17.004-8.073 28.66 0 5.461 0.438 10.63 1.211 15.276-3.343 3.117-10.211 10.486-10.211 18.432 7.239-1.841 14.872-1.984 17.068-1.984 0.403 0 0.623 5e-3 0.623 5e-3l-0.011-0.021h8.639l-0.011 0.021s0.22-5e-3 0.623-5e-3c2.197 0 9.829 0.143 17.069 1.984 0-7.946-6.87-15.316-10.212-18.432"/>
<path d="m51 90.038c-1.274-1.597-3-4.344-3-7.515 0-3.132 1.368-6.096 2.143-7.523h2.385c0.619 2.1 1.472 5.452 1.472 7.523 0 3.171-1.727 5.919-3 7.515zm-2-17.038s-3 4.477-3 9.523c0 5.999 5 10.477 5 10.477s5-4.478 5-10.477c0-3.524-2-9.523-2-9.523h-5z"/>
<path d="m45 36c0-3.309 2.691-6 6-6s6 2.691 6 6-2.691 6-6 6-6-2.691-6-6m14 0c0-4.418-3.582-8-8-8s-8 3.582-8 8 3.582 8 8 8 8-3.582 8-8"/>
<path d="m48 36c0-1.654 1.346-3 3-3s3 1.346 3 3-1.346 3-3 3-3-1.346-3-3m8 0c0-2.761-2.238-5-5-5-2.761 0-5 2.239-5 5s2.239 5 5 5c2.762 0 5-2.239 5-5"/>
<path d="m93 34c-1.103 0-2-0.897-2-2s0.897-2 2-2 2 0.897 2 2-0.897 2-2 2m0-6c-2.209 0-4 1.791-4 4s1.791 4 4 4 4-1.791 4-4-1.791-4-4-4"/>
<path d="m8.5 94c-1.93 0-3.5-1.57-3.5-3.5s1.57-3.5 3.5-3.5 3.5 1.57 3.5 3.5-1.57 3.5-3.5 3.5m0-9c-3.038 0-5.5 2.463-5.5 5.5s2.462 5.5 5.5 5.5 5.5-2.463 5.5-5.5-2.462-5.5-5.5-5.5"/>
<path d="m23 19c-0.551 0-1-0.449-1-1s0.449-1 1-1 1 0.449 1 1-0.449 1-1 1m0-4c-1.657 0-3 1.343-3 3s1.343 3 3 3 3-1.343 3-3-1.343-3-3-3"/>
<path d="m30 74c-0.556 0-1 0.447-1 1v15c0 0.545 0.448 1 1 1 0.556 0 1-0.447 1-1v-15c0-0.545-0.448-1-1-1"/>
<path d="m30 95c-0.556 0-1 0.447-1 0.999v1.002c0 0.557 0.448 0.999 1 0.999 0.556 0 1-0.447 1-0.999v-1.002c0-0.557-0.448-0.999-1-0.999"/>
<path d="m72 74c-0.556 0-1 0.447-1 0.998v11.004c0 0.551 0.447 0.998 1 0.998 0.556 0 1-0.447 1-0.998v-11.004c0-0.551-0.447-0.998-1-0.998"/>
<path d="m64 83c-0.556 0-1 0.447-1 0.999v1.002c0 0.557 0.447 0.999 1 0.999 0.556 0 1-0.447 1-0.999v-1.002c0-0.557-0.447-0.999-1-0.999"/>
<path d="m64 74c-0.556 0-1 0.443-1 0.991v4.018c0 0.54 0.447 0.991 1 0.991 0.556 0 1-0.443 1-0.991v-4.018c0-0.54-0.447-0.991-1-0.991"/>
<path d="m64 89c-0.556 0-1 0.447-1 1v3c0 0.557 0.447 1 1 1 0.556 0 1-0.447 1-1v-3c0-0.557-0.447-1-1-1"/>
<path d="m39 77c-0.556 0-1 0.449-1 1.003v9.994c0 0.547 0.448 1.003 1 1.003 0.556 0 1-0.449 1-1.003v-9.994c0-0.547-0.448-1.003-1-1.003"/>
<path d="m72 89c-0.556 0-1 0.452-1 1.01v1.98c0 0.567 0.447 1.01 1 1.01 0.556 0 1-0.452 1-1.01v-1.98c0-0.567-0.447-1.01-1-1.01"/>
<path d="m69.586 11l-1.416 1.417c-0.385 0.384-0.389 1.021 2e-3 1.412 0.393 0.393 1.022 0.391 1.412 2e-3l1.416-1.417 1.416 1.417c0.385 0.384 1.022 0.388 1.412-2e-3 0.394-0.394 0.392-1.023 2e-3 -1.412l-1.416-1.417 1.416-1.417c0.385-0.384 0.389-1.021-2e-3 -1.412-0.392-0.393-1.022-0.391-1.412-2e-3l-1.416 1.417-1.416-1.417c-0.385-0.384-1.021-0.388-1.412 2e-3 -0.394 0.394-0.392 1.023-2e-3 1.412l1.416 1.417z"/>
<path d="m89 54c0.556 0 1-0.447 1-1 0-0.556-0.447-1-1-1-0.556 0-1 0.447-1 1 0 0.556 0.447 1 1 1"/>
<path d="m30 42c0-0.556-0.448-1-1-1-0.556 0-1 0.448-1 1 0 0.556 0.448 1 1 1 0.556 0 1-0.448 1-1"/>
<path d="m14 28c0.556 0 1-0.448 1-1 0-0.556-0.448-1-1-1-0.556 0-1 0.448-1 1 0 0.556 0.448 1 1 1"/>
<path d="m91.414 77l2.125-2.125c0.382-0.381 0.387-1.02-4e-3 -1.41-0.392-0.394-1.021-0.393-1.41-4e-3l-2.125 2.125-2.125-2.125c-0.381-0.382-1.02-0.387-1.41 4e-3 -0.394 0.392-0.393 1.021-4e-3 1.41l2.125 2.125-2.125 2.125c-0.382 0.381-0.387 1.02 4e-3 1.41 0.392 0.394 1.021 0.393 1.41 4e-3l2.125-2.125 2.125 2.125c0.381 0.382 1.019 0.387 1.41-4e-3 0.394-0.392 0.393-1.021 4e-3 -1.41l-2.125-2.125z"/>
<path d="m91 91c-0.556 0-1 0.447-1 1 0 0.556 0.447 1 1 1 0.556 0 1-0.447 1-1 0-0.556-0.447-1-1-1"/>
<path d="m18.004 55h-3.004v-3.005c0-0.539-0.448-0.995-1-0.995-0.557 0-1 0.445-1 0.995v3.005h-3.005c-0.54 0-0.995 0.447-0.995 1 0 0.556 0.445 1 0.995 1h3.005v3.005c0 0.539 0.447 0.995 1 0.995 0.556 0 1-0.445 1-0.995v-3.005h3.004c0.54 0 0.996-0.447 0.996-1 0-0.556-0.446-1-0.996-1"/>
<path d="m19 5c-0.556 0-1 0.448-1 1 0 0.556 0.448 1 1 1 0.556 0 1-0.448 1-1 0-0.556-0.448-1-1-1"/>
<path d="m15 82c-0.556 0-1 0.447-1 1 0 0.556 0.448 1 1 1 0.556 0 1-0.447 1-1 0-0.556-0.448-1-1-1"/>
<path d="m74 28c-0.556 0-1 0.448-1 1 0 0.556 0.447 1 1 1 0.556 0 1-0.448 1-1 0-0.556-0.447-1-1-1"/>
<path d="m93 8c0.556 0 1-0.448 1-1 0-0.556-0.447-1-1-1-0.556 0-1 0.448-1 1 0 0.556 0.447 1 1 1"/>
</g>
</g>
</svg>
